assets/images/editAccount.svg

<svg width="20" height="20" viewBox="0 0 20 20" fill="none" xmlns="http://www.w3.org/2000/svg">
<g clip-path="url(#clip0_73_8563)">
<path d="M7.5 10C10.2575 10 12.5 7.7575 12.5 5C12.5 2.2425 10.2575 0 7.5 0C4.7425 0 2.5 2.2425 2.5 5C2.5 7.7575 4.7425 10 7.5 10ZM7.5 1.66667C9.33833 1.66667 10.8333 3.16167 10.8333 5C10.8333 6.83833 9.33833 8.33333 7.5 8.33333C5.66167 8.33333 4.16667 6.83833 4.16667 5C4.16667 3.16167 5.66167 1.66667 7.5 1.66667ZM8.95833 13.5167C8.485 13.395 7.99417 13.3333 7.5 13.3333C4.28333 13.3333 1.66667 15.95 1.66667 19.1667C1.66667 19.6267 1.29333 20 0.833333 20C0.373333 20 0 19.6267 0 19.1667C0 15.0317 3.365 11.6667 7.5 11.6667C8.135 11.6667 8.76583 11.7458 9.375 11.9033C9.82083 12.0183 10.0883 12.4725 9.97417 12.9183C9.86 13.3642 9.4075 13.6317 8.95917 13.5175L8.95833 13.5167ZM19.2675 9.89917C18.3225 8.95417 16.6758 8.95417 15.7317 9.89917L10.1425 15.4883C9.51333 16.1175 9.16583 16.955 9.16583 17.8458V19.1675C9.16583 19.6275 9.53917 20.0008 9.99917 20.0008H11.3208C12.2117 20.0008 13.0483 19.6533 13.6775 19.0242L19.2667 13.435C19.7392 12.9625 19.9992 12.335 19.9992 11.6667C19.9992 10.9983 19.7392 10.3708 19.2675 9.89917ZM18.0883 12.2558L12.4983 17.845C12.1842 18.16 11.7658 18.3333 11.32 18.3333H10.8317V17.845C10.8317 17.4 11.005 16.9817 11.32 16.6667L16.91 11.0775C17.2242 10.7625 17.7733 10.7625 18.0883 11.0775C18.2458 11.2342 18.3325 11.4433 18.3325 11.6667C18.3325 11.89 18.2458 12.0983 18.0883 12.2558Z" fill="#009640"/>
</g>
<defs>
<clipPath id="clip0_73_8563">
<rect width="20" height="20" fill="white"/>
</clipPath>
</defs>
</svg>

<svg width="20" height="20" fill="none" xmlns="http://www.w3.org/2000/svg"><g clip-path="url(#a)"><path d="M7.5 10c2.758 0 5-2.242 5-5 0-2.757-2.242-5-5-5s-5 2.243-5 5c0 2.758 2.242 5 5 5Zm0-8.333A3.337 3.337 0 0 1 10.833 5 3.337 3.337 0 0 1 7.5 8.333 3.337 3.337 0 0 1 4.167 5 3.337 3.337 0 0 1 7.5 1.667Zm1.458 11.85a5.84 5.84 0 0 0-7.292 5.65.834.834 0 0 1-1.666 0c0-4.135 3.365-7.5 7.5-7.5.635 0 1.266.079 1.875.236a.834.834 0 0 1-.416 1.614Zm10.31-3.618c-.945-.945-2.592-.945-3.536 0l-5.59 5.59a3.313 3.313 0 0 0-.976 2.357v1.322c0 .46.373.833.833.833h1.322c.89 0 1.727-.348 2.357-.977l5.589-5.589c.472-.473.732-1.1.732-1.768 0-.669-.26-1.296-.732-1.768Zm-1.18 2.357-5.59 5.589a1.652 1.652 0 0 1-1.178.488h-.488v-.488c0-.445.173-.863.488-1.178l5.59-5.59a.853.853 0 0 1 1.178 0 .825.825 0 0 1 .244.59.826.826 0 0 1-.244.589Z" fill="#009640"/></g><defs><clipPath id="a"><path fill="#fff" d="M0 0h20v20H0z"/></clipPath></defs></svg>
